X: 4
T: The Irish Girl
R: reel
M: 4/4
L: 1/8
K: Dmaj
|:AG|FGAF DEFD|EA A2 ABAG|FGAF DEFA|(3Bcd ec dBAG|
F3A D3F|EA A2 ABAG|FD D2 DEFA|(3Bcd ec d2||
|:g|fddc dfaf|edcd efge|fddc dfag|fgeg fdde|
fddc dfaf|edcd efge|fdef gbag|fdec dBAG||


Tune 844	Setting 24527

